src/assets/icons/totop.svg

<?xml version="1.0" encoding="utf-8"?>

<!-- Uploaded to: SVG Repo, www.svgrepo.com, Generator: SVG Repo Mixer Tools -->
<svg width="800px" height="800px" viewBox="0 0 24 24" xmlns="http://www.w3.org/2000/svg" xmlns:xlink="http://www.w3.org/1999/xlink">
  <defs>
    <path id="top-c" d="M3.41421356,4 L13.0014708,4 C13.5529433,4 14,4.44771525 14,5 C14,5.55228475 13.5529433,6 13.0014708,6 L3.41421356,6 L5.70710678,8.29289322 C6.09763107,8.68341751 6.09763107,9.31658249 5.70710678,9.70710678 C5.31658249,10.0976311 4.68341751,10.0976311 4.29289322,9.70710678 L0.292893219,5.70710678 C-0.0976310729,5.31658249 -0.0976310729,4.68341751 0.292893219,4.29289322 L4.29289322,0.292893219 C4.68341751,-0.0976310729 5.31658249,-0.0976310729 5.70710678,0.292893219 C6.09763107,0.683417511 6.09763107,1.31658249 5.70710678,1.70710678 L3.41421356,4 Z"/>
  </defs>
  <g fill="none" fill-rule="evenodd" transform="matrix(0 1 1 0 7 5)">
    <g transform="translate(3 1)">
      <mask id="top-b" fill="#02a5e0">
        <use xlink:href="#top-a"/>
      </mask>
      <use fill="#02a5e0" fill-rule="nonzero" xlink:href="#top-a"/>
      <g fill="#02a5e0" mask="url(#top-b)">
        <rect width="24" height="24" transform="translate(-8 -8)"/>
      </g>
    </g>
    <mask id="top-d" fill="#02a5e0">
      <use xlink:href="#top-c"/>
    </mask>
    <use fill="#02a5e0" fill-rule="nonzero" xlink:href="#top-c"/>
    <g fill="#02a5e0" mask="url(#top-d)">
      <rect width="24" height="24" transform="translate(-5 -7)"/>
    </g>
  </g>
</svg>

<svg height="800" viewBox="0 0 24 24" width="800" xmlns="http://www.w3.org/2000/svg" xmlns:xlink="http://www.w3.org/1999/xlink"><defs><path id="a" d="m3.41421356 4h9.58725724c.5514725 0 .9985292.44771525.9985292 1s-.4470567 1-.9985292 1h-9.58725724l2.29289322 2.29289322c.39052429.39052429.39052429 1.02368927 0 1.41421356-.39052429.39052432-1.02368927.39052432-1.41421356 0l-4-4c-.39052429-.39052429-.39052429-1.02368927 0-1.41421356l4-4c.39052429-.39052429 1.02368927-.39052429 1.41421356 0s.39052429 1.02368927 0 1.41421356z"/><mask id="b" fill="#02a5e0"/><mask id="c" fill="#02a5e0"><use fill="#02a5e0" fill-rule="evenodd" xlink:href="#a"/></mask></defs><g fill="#02a5e0" fill-rule="evenodd" transform="matrix(0 1 1 0 7 5)"><g mask="url(#b)" transform="translate(3 1)"><path d="m0 0h24v24h-24z" transform="translate(-8 -8)"/></g><use fill-rule="nonzero" xlink:href="#a"/><g mask="url(#c)"><path d="m0 0h24v24h-24z" transform="translate(-5 -7)"/></g></g></svg>
